X: 1215
T: Karanfilin Moruna
C: (Anonim)
O: Turkey
F: http://compmusic.upf.edu/node/140
N: evic--turku--agiraksak--karanfilin_moruna--canakkale
N: makam= evic
N: form= turku
N: usul= agiraksak = 9/4
M: 9/4
L: 1/16
K: C _1/4B ^f ^c 
Q: 1/4=66
%%MIDI tuningsystem comma53
ffff ^3/4efge f4 ffa2 g2^3/4f2 =e2d2 dced dc{d}cd B2A2  | 
w:  ARANAĞME  | 
AGAB c2d2 e2e{=f}d {e}c2dB B2A2 d2^1/4cB AG/F/GF F3F FFF2  | 
w:   | 
ffff ^3/4efge f4 ffa2 g2^3/4f2 =e2d2 dced dc{d}cd B2A2  | 
w:  *  *  *  *  *  *  *  *  *  Ka ran *  fi lin  mo *  ru *  *  *  na  *  *  a man_ a man    | 
AGAB c2d2 e2e{=f}d {e}c{d}cdB B{c}B{c}A2 d2^1/4cB AG/F/GF F3F FFF2  | 
w:  SAZ *  *  *  *  *  *  *  *  *  *  Ö *  lü *  *  yo *  rum  *  *  yo *  *  lu *  *  *  *  na    | 
ffff ^3/4efge f4 ffa2 g2^3/4f2 =e2d2 dced dc{d}cd B2A2  | 
w:  SAZ *  *  *  *  *  *  *  *  Çif te  *  kur ban_ a *  da *  *  *  dım_ *  *  a man_ a man    | 
AGAB c2d2 e2e{=f}d {e}c{d}cdB B{c}B{c}A2 d2^1/4cB AG/F/GF F3F FFF2  | 
w:  SAZ *  *  *  *  *  *  *  *  *  *  Sev *  *  di *  ği *  min  *  *  yo *  *  lu *  *  *  *  na    | 
ffff ^3/4efge f4 ffa2 g2^3/4f2 =e2d2 dced dc{d}cd B2A2  | 
w:  SAZ *  *  *  *  *  *  *  *  Çif te  *  kur ban_ a *  da *  *  *  dım_ *  *  a man_ a man    | 
AGAB c2d2 e2e{=f}d {e}c{d}cdB B{c}B{c}A2 d2^1/4cB AG/F/GF F3F FFF2  | 
w:  SAZ *  *  *  *  *  *  *  *  *  *  Sev *  *  di *  ği *  min  *  *  yo *  *  lu *  *  *  *  na    | 
ffff ^3/4efge f4 ffa2 g2^3/4f2 =e2d2 dced dc{d}cd B2A2  | 
w:  ARANAĞME  | 
AGAB c2d2 e2e{=f}d {e}c2dB B2A2 d2^1/4cB AG/F/GF F3F FFF2  | 
w:   | 
ffff ^3/4efge f4 ffa2 g2^3/4f2 =e2d2 dced dc{d}cd B2A2  | 
w:  *  *  *  *  *  *  *  *  *  Ka ran *  fi lin  mo *  ru *  *  *  na  *  *  a man_ a man    | 
AGAB c2d2 e2e{=f}d {e}c{d}cdB B{c}B{c}A2 d2^1/4cB AG/F/GF F3F FFF2  | 
w:  SAZ *  *  *  *  *  *  *  *  *  *  Ö *  lü *  *  yo *  rum  *  *  yo *  *  lu *  *  *  *  na    | 
ffff ^3/4efge f4 ffa2 g2^3/4f2 =e2d2 dced dc{d}cd B2A2  | 
w:  SAZ *  *  *  *  *  *  *  *  Çif te  *  kur ban_ a *  da *  *  *  dım_ *  *  a man_ a man    | 
AGAB c2d2 e2e{=f}d {e}c{d}cdB B{c}B{c}A2 d2^1/4cB AG/F/GF F3F FFF2  | 
w:  SAZ *  *  *  *  *  *  *  *  *  *  Sev *  *  di *  ği *  min  *  *  yo *  *  lu *  *  *  *  na    | 
ffff ^3/4efge f4 ffa2 g2^3/4f2 =e2d2 dced dc{d}cd B2A2  | 
w:  SAZ *  *  *  *  *  *  *  *  Çif te  *  kur ban_ a *  da *  *  *  dım_ *  *  a man_ a man    | 
AGAB c2d2 e2e{=f}d {e}c{d}cdB B{c}B{c}A2 d2^1/4cB AG/F/GF F3F FFF2  | 
w:  SAZ *  *  *  *  *  *  *  *  *  *  Sev *  *  di *  ği *  min  *  *  yo *  *  lu *  *  *  *  na    | 
|


